src/assets/images/earnings-chart-icon.svg

<svg width="40" height="40" viewBox="0 0 40 40" fill="none" xmlns="http://www.w3.org/2000/svg">
<g clip-path="url(#clip0_118_12808)">
<path d="M18.75 14.375C20.1097 14.375 21.439 13.9718 22.5695 13.2164C23.7001 12.4609 24.5813 11.3872 25.1017 10.131C25.622 8.87471 25.7582 7.49238 25.4929 6.15876C25.2276 4.82514 24.5728 3.60013 23.6114 2.63864C22.6499 1.67716 21.4249 1.02238 20.0912 0.757104C18.7576 0.491831 17.3753 0.627979 16.1191 1.14833C14.8628 1.66868 13.7891 2.54987 13.0336 3.68046C12.2782 4.81105 11.875 6.14026 11.875 7.5C11.875 9.32337 12.5993 11.0721 13.8886 12.3614C15.178 13.6507 16.9266 14.375 18.75 14.375ZM18.75 1.875C19.8625 1.875 20.9501 2.2049 21.8751 2.82299C22.8001 3.44107 23.5211 4.31957 23.9468 5.34741C24.3726 6.37524 24.484 7.50624 24.2669 8.59739C24.0499 9.68853 23.5141 10.6908 22.7275 11.4775C21.9408 12.2641 20.9385 12.7999 19.8474 13.0169C18.7562 13.234 17.6252 13.1226 16.5974 12.6968C15.5696 12.2711 14.6911 11.5501 14.073 10.6251C13.4549 9.70006 13.125 8.61252 13.125 7.5C13.125 6.00816 13.7176 4.57742 14.7725 3.52253C15.8274 2.46764 17.2582 1.875 18.75 1.875Z" fill="#0000FF"/>
<path d="M18.8123 9.55C18.6813 9.55998 18.5496 9.54355 18.4251 9.50167C18.3005 9.4598 18.1857 9.39335 18.0873 9.30625C18.0184 9.24885 17.9626 9.17727 17.9237 9.09638C17.8849 9.0155 17.864 8.9272 17.8623 8.8375H16.6123C16.6146 9.09856 16.6714 9.35626 16.779 9.59411C16.8866 9.83196 17.0427 10.0447 17.2373 10.2188C17.4907 10.4488 17.7947 10.6158 18.1248 10.7062V11.875H19.3748V10.7C19.692 10.6112 19.9832 10.4473 20.2237 10.2221C20.4641 9.99685 20.6467 9.71701 20.7561 9.40625C20.8738 9.0111 20.858 8.58815 20.7111 8.20287C20.5643 7.8176 20.2945 7.49148 19.9436 7.275C19.5702 7.0637 19.1681 6.9079 18.7498 6.8125C17.9186 6.575 17.8373 6.48125 17.8373 6.1875C17.864 5.96972 17.9739 5.77071 18.144 5.63209C18.314 5.49347 18.5311 5.42599 18.7498 5.44375C18.9622 5.42435 19.1738 5.4886 19.3396 5.62284C19.5053 5.75708 19.6121 5.9507 19.6373 6.1625H20.8873C20.8763 5.72719 20.7222 5.30764 20.4488 4.96872C20.1754 4.6298 19.7979 4.39038 19.3748 4.2875V3.125H18.1248V4.29375C17.7052 4.40313 17.3317 4.64434 17.0594 4.98188C16.7871 5.31942 16.6304 5.73546 16.6123 6.16875C16.6123 7.5 17.7061 7.8125 18.4311 8.04375C18.7216 8.10781 19.0015 8.21304 19.2623 8.35625C19.3837 8.42387 19.4791 8.53001 19.5334 8.65792C19.5878 8.78582 19.5979 8.92818 19.5623 9.0625C19.4927 9.20371 19.3863 9.32353 19.2543 9.40933C19.1223 9.49513 18.9696 9.54373 18.8123 9.55Z" fill="#0000FF"/>
<path d="M10.625 17.5V15.625H12.5V14.375H10.625V12.5H9.375V14.375H7.5V15.625H9.375V17.5H10.625Z" fill="#0000FF"/>
<path d="M39.375 2.5H37.5V0.625H36.25V2.5H34.375V3.75H36.25V5.625H37.5V3.75H39.375V2.5Z" fill="#0000FF"/>
<path d="M4.375 24.375V23.125H5.625V21.875H4.375V20.625H3.125V21.875H1.875V23.125H3.125V24.375H4.375Z" fill="#0000FF"/>
<path d="M1.875 6.875H3.125V5.625H4.375V4.375H3.125V3.125H1.875V4.375H0.625V5.625H1.875V6.875Z" fill="#0000FF"/>
<path d="M5 39.375C7.175 39.375 9.375 38.625 9.375 37.1875V29.6875C9.375 28.25 7.175 27.5 5 27.5C2.825 27.5 0.625 28.25 0.625 29.6875V37.1875C0.625 38.625 2.825 39.375 5 39.375ZM5 28.75C7.05 28.75 8.125 29.4438 8.125 29.6875C8.125 29.9313 7.05 30.625 5 30.625C2.95 30.625 1.875 29.9313 1.875 29.6875C1.875 29.4438 2.95 28.75 5 28.75ZM1.875 31.25C2.85921 31.6819 3.92539 31.8951 5 31.875C6.07461 31.8951 7.14079 31.6819 8.125 31.25V32.1875C8.125 32.4313 7.05 33.125 5 33.125C2.95 33.125 1.875 32.4313 1.875 32.1875V31.25ZM1.875 33.75C2.85921 34.1819 3.92539 34.3951 5 34.375C6.07461 34.3951 7.14079 34.1819 8.125 33.75V34.6875C8.125 34.9313 7.05 35.625 5 35.625C2.95 35.625 1.875 34.9313 1.875 34.6875V33.75ZM1.875 36.25C2.85921 36.6819 3.92539 36.8951 5 36.875C6.07461 36.8951 7.14079 36.6819 8.125 36.25V37.1875C8.125 37.4312 7.05 38.125 5 38.125C2.95 38.125 1.875 37.4312 1.875 37.1875V36.25Z" fill="#0000FF"/>
<path d="M15 39.375C17.175 39.375 19.375 38.625 19.375 37.1875V24.6875C19.375 23.25 17.175 22.5 15 22.5C12.825 22.5 10.625 23.25 10.625 24.6875V37.1875C10.625 38.625 12.825 39.375 15 39.375ZM15 23.75C17.05 23.75 18.125 24.4438 18.125 24.6875C18.125 24.9313 17.05 25.625 15 25.625C12.95 25.625 11.875 24.9313 11.875 24.6875C11.875 24.4438 12.95 23.75 15 23.75ZM11.875 26.25C12.8592 26.6819 13.9254 26.8951 15 26.875C16.0746 26.8951 17.1408 26.6819 18.125 26.25V27.1563C18.125 27.4 17.0437 28.1188 15 28.1188C12.9562 28.1188 11.875 27.4 11.875 27.1563V26.25ZM11.875 28.75C12.8585 29.184 13.9252 29.3973 15 29.375C16.0746 29.3953 17.1408 29.1821 18.125 28.75V29.7563C17.9375 30.0875 16.8313 30.625 15 30.625C12.9375 30.625 11.875 29.9313 11.875 29.6875V28.75ZM11.875 31.25C12.8599 31.6798 13.9256 31.8929 15 31.875C16.0739 31.8871 17.1384 31.6742 18.125 31.25V32.15C18.125 32.3937 17.05 33.0938 15 33.0938C12.95 33.0938 11.875 32.3937 11.875 32.15V31.25ZM11.875 33.75C12.8592 34.1819 13.9254 34.3951 15 34.375C16.0746 34.3951 17.1408 34.1819 18.125 33.75V34.6875C18.125 34.9312 17.05 35.625 15 35.625C12.95 35.625 11.875 34.9312 11.875 34.6875V33.75ZM11.875 36.25C12.8592 36.6819 13.9254 36.8951 15 36.875C16.0746 36.8951 17.1408 36.6819 18.125 36.25V37.1875C18.125 37.4312 17.05 38.125 15 38.125C12.95 38.125 11.875 37.4312 11.875 37.1875V36.25Z" fill="#0000FF"/>
<path d="M29.375 37.1875V19.6875C29.375 18.25 27.175 17.5 25 17.5C22.825 17.5 20.625 18.25 20.625 19.6875V37.1875C20.625 38.625 22.825 39.375 25 39.375C27.175 39.375 29.375 38.625 29.375 37.1875ZM28.125 37.1875C28.125 37.4312 27.05 38.125 25 38.125C22.95 38.125 21.875 37.4312 21.875 37.1875V36.25C22.8592 36.6819 23.9254 36.8951 25 36.875C26.0746 36.8951 27.1408 36.6819 28.125 36.25V37.1875ZM28.125 34.6875C28.125 34.9312 27.05 35.625 25 35.625C22.95 35.625 21.875 34.9312 21.875 34.6875V33.75C22.8592 34.1819 23.9254 34.3951 25 34.375C26.0746 34.3951 27.1408 34.1819 28.125 33.75V34.6875ZM28.125 32.1875C28.125 32.4312 27.05 33.1312 25 33.1312C22.95 33.1312 21.875 32.4312 21.875 32.1875V31.25C22.8599 31.6798 23.9256 31.8929 25 31.875C26.0717 31.8969 27.1361 31.6947 28.125 31.2812V32.1875ZM28.125 29.7688C27.9375 30.0938 26.8063 30.6375 25 30.6375C22.9375 30.6375 21.875 29.9438 21.875 29.7V28.75C22.8599 29.1798 23.9256 29.3929 25 29.375C26.0739 29.3871 27.1384 29.1742 28.125 28.75V29.7688ZM28.125 27.2688C27.9375 27.5938 26.8063 28.1375 25 28.1375C22.9375 28.1375 21.875 27.4438 21.875 27.2V26.25C22.8599 26.6798 23.9256 26.8929 25 26.875C26.0739 26.8871 27.1384 26.6742 28.125 26.25V27.2688ZM28.125 24.7688C27.9375 25.0938 26.8063 25.6375 25 25.6375C22.9375 25.6375 21.875 24.9438 21.875 24.7V23.75C22.8585 24.184 23.9252 24.3973 25 24.375C26.0744 24.3929 27.1401 24.1798 28.125 23.75V24.7688ZM28.125 22.2C28.125 22.4438 27.0437 23.1375 25 23.1375C22.9562 23.1375 21.875 22.475 21.875 22.2V21.25C22.8592 21.6819 23.9254 21.8951 25 21.875C26.0746 21.8951 27.1408 21.6819 28.125 21.25V22.2ZM25 20.625C22.95 20.625 21.875 19.9313 21.875 19.6875C21.875 19.4438 22.95 18.75 25 18.75C27.05 18.75 28.125 19.4438 28.125 19.6875C28.125 19.9313 27.05 20.625 25 20.625Z" fill="#0000FF"/>
<path d="M30.625 12.1875V37.1875C30.625 38.625 32.825 39.375 35 39.375C37.175 39.375 39.375 38.625 39.375 37.1875V12.1875C39.375 10.75 37.175 10 35 10C32.825 10 30.625 10.75 30.625 12.1875ZM38.125 37.1875C38.125 37.4312 37.05 38.125 35 38.125C32.95 38.125 31.875 37.4312 31.875 37.1875V36.25C33.8766 37.0751 36.1234 37.0751 38.125 36.25V37.1875ZM38.125 34.6875C38.125 34.9312 37.05 35.625 35 35.625C32.95 35.625 31.875 34.9312 31.875 34.6875V33.75C33.8766 34.5751 36.1234 34.5751 38.125 33.75V34.6875ZM38.125 32.1875C38.125 32.4312 37.05 33.1312 35 33.1312C32.95 33.1312 31.875 32.4312 31.875 32.1875V31.25C32.8599 31.6798 33.9256 31.8929 35 31.875C36.0739 31.8871 37.1384 31.6742 38.125 31.25V32.1875ZM38.125 29.7625C37.9375 30.0875 36.8063 30.6312 35 30.6312C32.9375 30.6312 31.875 29.9375 31.875 29.6937V28.75C32.8599 29.1798 33.9256 29.3929 35 29.375C36.0739 29.3871 37.1384 29.1742 38.125 28.75V29.7625ZM38.125 27.2625C37.9375 27.5875 36.8063 28.1312 35 28.1312C32.9375 28.1312 31.875 27.4375 31.875 27.1937V26.25C32.8599 26.6798 33.9256 26.8929 35 26.875C36.0739 26.8871 37.1384 26.6742 38.125 26.25V27.2625ZM38.125 24.7625C37.9375 25.0875 36.8063 25.6312 35 25.6312C32.9375 25.6312 31.875 24.9375 31.875 24.6937V23.75C32.8585 24.184 33.9252 24.3973 35 24.375C36.0744 24.3929 37.1401 24.1798 38.125 23.75V24.7625ZM38.125 22.1937C38.125 22.4375 37.0437 23.1312 35 23.1312C32.9562 23.1312 31.875 22.4687 31.875 22.1937V21.25C32.8599 21.6798 33.9256 21.8929 35 21.875C36.0739 21.8871 37.1384 21.6742 38.125 21.25V22.1937ZM38.125 19.7625C37.9375 20.0875 36.8063 20.6312 35 20.6312C32.9375 20.6312 31.875 19.9375 31.875 19.6938V18.75C32.8599 19.1798 33.9256 19.3929 35 19.375C36.0717 19.3969 37.1361 19.1947 38.125 18.7812V19.7625ZM38.125 17.2625C37.9375 17.5875 36.8063 18.1313 35 18.1313C32.9375 18.1313 31.875 17.4375 31.875 17.1938V16.25C32.8585 16.684 33.9252 16.8973 35 16.875C36.0744 16.8929 37.1401 16.6798 38.125 16.25V17.2625ZM38.125 14.6938C38.125 14.9375 37.0437 15.6313 35 15.6313C32.9562 15.6313 31.875 14.9688 31.875 14.6938V13.75C33.8766 14.5751 36.1234 14.5751 38.125 13.75V14.6938ZM38.125 12.1938C38.125 12.4375 37.05 13.1313 35 13.1313C32.95 13.1313 31.875 12.4375 31.875 12.1938C31.875 11.95 32.95 11.25 35 11.25C37.05 11.25 38.125 11.9438 38.125 12.1875V12.1938Z" fill="#0000FF"/>
</g>
<defs>
<clipPath id="clip0_118_12808">
<rect width="40" height="40" fill="white"/>
</clipPath>
</defs>
</svg>

<svg xmlns="http://www.w3.org/2000/svg" width="40" height="40" fill="none" viewBox="0 0 40 40"><g fill="#00f" clip-path="url(#a)"><path d="M18.75 14.375a6.875 6.875 0 1 0 0-13.75 6.875 6.875 0 0 0 0 13.75m0-12.5a5.625 5.625 0 1 1 0 11.25 5.625 5.625 0 0 1 0-11.25"/><path d="M18.812 9.55a.98.98 0 0 1-.725-.244.63.63 0 0 1-.225-.468h-1.25a1.88 1.88 0 0 0 .625 1.38c.254.23.558.398.888.488v1.169h1.25V10.7a2.05 2.05 0 0 0 1.381-1.294 1.875 1.875 0 0 0-.812-2.131 4.4 4.4 0 0 0-1.194-.463c-.831-.237-.913-.33-.913-.625a.85.85 0 0 1 .913-.743.82.82 0 0 1 .887.718h1.25a1.98 1.98 0 0 0-1.512-1.875V3.125h-1.25v1.169a2.025 2.025 0 0 0-1.513 1.875c0 1.331 1.094 1.644 1.82 1.875.29.064.57.169.83.312a.625.625 0 0 1 .3.707.88.88 0 0 1-.75.487m-8.187 7.95v-1.875H12.5v-1.25h-1.875V12.5h-1.25v1.875H7.5v1.25h1.875V17.5zm28.75-15H37.5V.625h-1.25V2.5h-1.875v1.25h1.875v1.875h1.25V3.75h1.875zm-35 21.875v-1.25h1.25v-1.25h-1.25v-1.25h-1.25v1.25h-1.25v1.25h1.25v1.25zm-2.5-17.5h1.25v-1.25h1.25v-1.25h-1.25v-1.25h-1.25v1.25H.625v1.25h1.25zM5 39.375c2.175 0 4.375-.75 4.375-2.187v-7.5c0-1.438-2.2-2.188-4.375-2.188s-4.375.75-4.375 2.188v7.5c0 1.437 2.2 2.187 4.375 2.187M5 28.75c2.05 0 3.125.694 3.125.938 0 .243-1.075.937-3.125.937s-3.125-.694-3.125-.937S2.95 28.75 5 28.75m-3.125 2.5A7.4 7.4 0 0 0 5 31.875a7.4 7.4 0 0 0 3.125-.625v.938c0 .243-1.075.937-3.125.937s-3.125-.694-3.125-.937zm0 2.5A7.4 7.4 0 0 0 5 34.375a7.4 7.4 0 0 0 3.125-.625v.938c0 .243-1.075.937-3.125.937s-3.125-.694-3.125-.937zm0 2.5A7.4 7.4 0 0 0 5 36.875a7.4 7.4 0 0 0 3.125-.625v.938c0 .243-1.075.937-3.125.937s-3.125-.694-3.125-.937zM15 39.375c2.175 0 4.375-.75 4.375-2.187v-12.5c0-1.438-2.2-2.188-4.375-2.188s-4.375.75-4.375 2.188v12.5c0 1.437 2.2 2.187 4.375 2.187m0-15.625c2.05 0 3.125.694 3.125.938 0 .243-1.075.937-3.125.937s-3.125-.694-3.125-.937S12.95 23.75 15 23.75m-3.125 2.5a7.4 7.4 0 0 0 3.125.625 7.4 7.4 0 0 0 3.125-.625v.906c0 .244-1.081.963-3.125.963s-3.125-.719-3.125-.963zm0 2.5c.983.434 2.05.647 3.125.625a7.4 7.4 0 0 0 3.125-.625v1.006c-.187.331-1.294.869-3.125.869-2.062 0-3.125-.694-3.125-.937zm0 2.5a7.5 7.5 0 0 0 3.125.625 7.7 7.7 0 0 0 3.125-.625v.9c0 .244-1.075.944-3.125.944s-3.125-.7-3.125-.944zm0 2.5a7.4 7.4 0 0 0 3.125.625 7.4 7.4 0 0 0 3.125-.625v.938c0 .243-1.075.937-3.125.937s-3.125-.694-3.125-.937zm0 2.5a7.4 7.4 0 0 0 3.125.625 7.4 7.4 0 0 0 3.125-.625v.938c0 .243-1.075.937-3.125.937s-3.125-.694-3.125-.937zm17.5.938v-17.5c0-1.438-2.2-2.188-4.375-2.188s-4.375.75-4.375 2.188v17.5c0 1.437 2.2 2.187 4.375 2.187s4.375-.75 4.375-2.187m-1.25 0c0 .243-1.075.937-3.125.937s-3.125-.694-3.125-.937v-.938a7.4 7.4 0 0 0 3.125.625 7.4 7.4 0 0 0 3.125-.625zm0-2.5c0 .243-1.075.937-3.125.937s-3.125-.694-3.125-.937v-.938a7.4 7.4 0 0 0 3.125.625 7.4 7.4 0 0 0 3.125-.625zm0-2.5c0 .243-1.075.943-3.125.943s-3.125-.7-3.125-.944v-.937a7.5 7.5 0 0 0 3.125.625 7.7 7.7 0 0 0 3.125-.594zm0-2.42c-.187.326-1.319.87-3.125.87-2.062 0-3.125-.694-3.125-.938v-.95a7.5 7.5 0 0 0 3.125.625 7.7 7.7 0 0 0 3.125-.625zm0-2.5c-.187.326-1.319.87-3.125.87-2.062 0-3.125-.694-3.125-.938v-.95a7.5 7.5 0 0 0 3.125.625 7.7 7.7 0 0 0 3.125-.625zm0-2.5c-.187.326-1.319.87-3.125.87-2.062 0-3.125-.694-3.125-.938v-.95c.983.434 2.05.647 3.125.625a7.5 7.5 0 0 0 3.125-.625zm0-2.568c0 .244-1.081.938-3.125.938s-3.125-.663-3.125-.938v-.95a7.4 7.4 0 0 0 3.125.625 7.4 7.4 0 0 0 3.125-.625zM25 20.625c-2.05 0-3.125-.694-3.125-.937S22.95 18.75 25 18.75s3.125.694 3.125.938c0 .243-1.075.937-3.125.937m5.625-8.437v25c0 1.437 2.2 2.187 4.375 2.187s4.375-.75 4.375-2.187v-25C39.375 10.75 37.175 10 35 10s-4.375.75-4.375 2.188m7.5 25c0 .243-1.075.937-3.125.937s-3.125-.694-3.125-.937v-.938a8.2 8.2 0 0 0 6.25 0zm0-2.5c0 .243-1.075.937-3.125.937s-3.125-.694-3.125-.937v-.938a8.2 8.2 0 0 0 6.25 0zm0-2.5c0 .243-1.075.943-3.125.943s-3.125-.7-3.125-.944v-.937a7.5 7.5 0 0 0 3.125.625 7.7 7.7 0 0 0 3.125-.625zm0-2.426c-.187.325-1.319.87-3.125.87-2.062 0-3.125-.695-3.125-.938v-.944a7.5 7.5 0 0 0 3.125.625 7.7 7.7 0 0 0 3.125-.625zm0-2.5c-.187.325-1.319.87-3.125.87-2.062 0-3.125-.695-3.125-.938v-.944a7.5 7.5 0 0 0 3.125.625 7.7 7.7 0 0 0 3.125-.625zm0-2.5c-.187.325-1.319.87-3.125.87-2.062 0-3.125-.695-3.125-.938v-.944c.983.434 2.05.647 3.125.625a7.5 7.5 0 0 0 3.125-.625zm0-2.568c0 .244-1.081.937-3.125.937s-3.125-.662-3.125-.937v-.944a7.5 7.5 0 0 0 3.125.625 7.7 7.7 0 0 0 3.125-.625zm0-2.431c-.187.324-1.319.868-3.125.868-2.062 0-3.125-.694-3.125-.937v-.944a7.5 7.5 0 0 0 3.125.625 7.7 7.7 0 0 0 3.125-.594zm0-2.5c-.187.324-1.319.868-3.125.868-2.062 0-3.125-.694-3.125-.937v-.944c.983.434 2.05.647 3.125.625a7.5 7.5 0 0 0 3.125-.625zm0-2.57c0 .245-1.081.938-3.125.938s-3.125-.662-3.125-.937v-.944a8.2 8.2 0 0 0 6.25 0zm0-2.5c0 .245-1.075.938-3.125.938s-3.125-.694-3.125-.937S32.95 11.25 35 11.25s3.125.694 3.125.938z"/></g><defs><clipPath id="a"><path fill="#fff" d="M0 0h40v40H0z"/></clipPath></defs></svg>
